build/system/ToCustomerOutline.svg

<svg xmlns="http://www.w3.org/2000/svg" fill="none" viewBox="0 0 24 24" focusable="false"><path d="M0 0H24V24H0z"/><path fill="#74767B" d="M3.37693 17.9062C3.38977 17.5684 3.66759 17.3014 4.00556 17.302L7.46096 17.3079L6.01041 15.9707C5.75905 15.7308 5.76348 15.3362 6.00346 15.0849C6.24309 14.8432 6.63794 14.838 6.88929 15.0779L9.41718 17.5333C9.70562 17.8131 9.68918 18.2746 9.38157 18.5332L6.68803 20.9164C6.55894 21.0273 6.41303 21.0702 6.2592 21.0648C6.08616 21.0586 5.92512 20.9855 5.80493 20.8464C5.58345 20.5787 5.61672 20.1852 5.87489 19.9633L7.42323 18.5581C7.42323 18.5581 5.63864 18.5674 3.9977 18.5566C3.64414 18.5543 3.36349 18.2595 3.37693 17.9062Z"/><path fill="#74767B" fill-rule="evenodd" d="M11.9999 3C14.6649 3 16.7362 5.32002 16.4353 7.96802L16.1733 10.274C15.9321 12.3966 14.1361 14 11.9999 14C9.86364 14 8.06768 12.3966 7.82648 10.274L7.56444 7.96803C7.26353 5.32002 9.33484 3 11.9999 3ZM9.11816 10.1272L8.85612 7.82124C8.64284 5.94439 10.111 4.3 11.9999 4.3C13.8888 4.3 15.3569 5.94439 15.1437 7.82124L14.8816 10.1272C14.7151 11.5928 13.475 12.7 11.9999 12.7C10.5248 12.7 9.28471 11.5928 9.11816 10.1272Z"/><path fill="#74767B" fill-rule="evenodd" d="M11.9999 3C14.6649 3 16.7362 5.32002 16.4353 7.96802L16.1733 10.274C15.9321 12.3966 14.1361 14 11.9999 14C9.86364 14 8.06768 12.3966 7.82648 10.274L7.56444 7.96803C7.26353 5.32002 9.33484 3 11.9999 3ZM9.11816 10.1272L8.85612 7.82124C8.64284 5.94439 10.111 4.3 11.9999 4.3C13.8888 4.3 15.3569 5.94439 15.1437 7.82124L14.8816 10.1272C14.7151 11.5928 13.475 12.7 11.9999 12.7C10.5248 12.7 9.28471 11.5928 9.11816 10.1272Z"/><path fill="#74767B" d="M13.8535 15C16.6657 15 19.1006 16.9532 19.7106 19.6984L19.8106 20.1481C19.9077 20.5853 19.5751 21 19.1273 21L11.3428 21C10.9838 21 10.6928 20.709 10.6928 20.35C10.6928 19.991 10.9838 19.7 11.3428 19.7L18.3702 19.7C17.7952 17.6982 15.9594 16.3 13.8535 16.3L11.3428 16.3C10.9838 16.3 10.6928 16.009 10.6928 15.65C10.6928 15.291 10.9838 15 11.3428 15L13.8535 15Z"/><path fill="#74767B" d="M13.8535 15C16.6657 15 19.1006 16.9532 19.7106 19.6984L19.8106 20.1481C19.9077 20.5853 19.5751 21 19.1273 21L11.3428 21C10.9838 21 10.6928 20.709 10.6928 20.35C10.6928 19.991 10.9838 19.7 11.3428 19.7L18.3702 19.7C17.7952 17.6982 15.9594 16.3 13.8535 16.3L11.3428 16.3C10.9838 16.3 10.6928 16.009 10.6928 15.65C10.6928 15.291 10.9838 15 11.3428 15L13.8535 15Z"/></svg>

<svg xmlns="http://www.w3.org/2000/svg" fill="none" viewBox="0 0 24 24" focusable="false"><g fill="#74767B"><path d="M3.37 17.9c.01-.34.29-.6.63-.6h3.46l-1.45-1.33a.62.62 0 0 1-.01-.89c.24-.24.63-.25.88-.01l2.53 2.46c.29.28.27.74-.03 1l-2.7 2.38c-.13.11-.27.16-.43.15a.63.63 0 0 1-.45-.22.63.63 0 0 1 .07-.88l1.55-1.41s-1.79.01-3.43 0a.63.63 0 0 1-.62-.65"/><path fill-rule="evenodd" d="M12 3a4.46 4.46 0 0 1 4.43 4.96l-.26 2.31A4.206 4.206 0 0 1 12 14c-2.14 0-3.94-1.61-4.18-3.73l-.26-2.31C7.26 5.32 9.33 3 12 3m-2.89 7.12-.26-2.3A3.176 3.176 0 0 1 12 4.29c1.88 0 3.35 1.65 3.14 3.53l-.26 2.3A2.91 2.91 0 0 1 12 12.7a2.91 2.91 0 0 1-2.89-2.58"/><path d="M13.85 15c2.81 0 5.25 1.95 5.86 4.69l.1.45c.09.44-.24.86-.69.86h-7.78c-.36 0-.65-.3-.65-.65 0-.36.29-.65.65-.65h7.03a4.71 4.71 0 0 0-4.52-3.41h-2.51c-.36 0-.65-.29-.65-.64 0-.36.29-.65.65-.65z"/></g></svg>
